X: 1
T: BAA BAA BLACK SHEEP
B: Haand me doon da fiddle, 1979
Z: 2012 John Chambers <jc:trillian.mit.edu>
M: C
L: 1/8
K: A
[|\
A2A2 e2e2 | fgaf e4 | d2d2 c2c2 | B2B2 A4 |
e2ee d2d2 | c2cc B4 | e2ee d2d2 | c2cc B4 |
A2A2 e2e2 | fgaf e4 | d2d2 c2c2 | B2B2 A4 |]
%%begintext align
%% Dis is wan o' da aisiest t\"uns to play when du starts to learn
%% da fiddle.  He haes words til him an if du minds dem when du's
%% playing him, it's a great help.
%%endtext
%%begintext
%%    Baa Baa black sheep   Haes du ony oo?
%%    Yes sir, yes sir      Tree bags fou
%%    Wan fir da maister    Wan fir da dame
%%    Wan fir de peerie boy At's left be his lain.
%%endtext

%%sep 2 1 500
%%sep 1 1 500

